packages/blockchain-info-components/src/Images/img/bank.svg

<svg fill="none" height="32" viewBox="0 0 32 32" width="32" xmlns="http://www.w3.org/2000/svg"><circle cx="16" cy="16" fill="#ecf5fe" r="16"/><path d="m8.89474 14.5v7h2.84206v-7zm5.68416 0v7h2.8422v-7zm-7.5789 12h18v-3h-18zm13.2632-12v7h2.8421v-7zm-4.2632-9-9 5v2h18v-2z" fill="#0c6cf2"/></svg>

<svg width="32" height="32" viewBox="0 0 32 32" fill="none" xmlns="http://www.w3.org/2000/svg">
<circle cx="16" cy="16" r="16" fill="#ECF5FE"/>
<path d="M8.89474 14.5V21.5H11.7368V14.5H8.89474ZM14.5789 14.5V21.5H17.4211V14.5H14.5789ZM7 26.5H25V23.5H7V26.5ZM20.2632 14.5V21.5H23.1053V14.5H20.2632ZM16 5.5L7 10.5V12.5H25V10.5L16 5.5Z" fill="#0C6CF2"/>
</svg>
